X: 3340
T: Mullevet (Menuet)
B:[[Notböcker/Melodier til gamle danske Almuedanse for Violin solo]]
O:Danmark
Z:Søren Bak Vestergaard
M: 3/4
L: 1/8
K: G
d2 dddd|(.d>.g) d2 z2|c2 cccc|(d/c/B/c/) B2 z2|^c2 cccc|\
(.d>.e) f2 z f|g>e d2 ^c2|d2 {A2}z2 {D2}z2:| |:f2 ffff|(.g>.d) d2 z2|\
c2 cccc|(.B>.c) d2 z2|(.e>.f) gggg|(.g>.a) b2 z b|c'>a g2 f2|g2 {D2}z2 {G,2}z2:|
(:musicend:)
(:music:)
